X: 147106
M: 6/8
L: 1/8
K: Em
ud |\
vB2vE EFE | BAB ud2uB | A2D DED | AFD FAd |\
uB |\
efe edB | efg gfe | ded dAF | d^cd fed |\
efe edB | efg fef | dBd AFD | EFE E2 |]


